!! Isochronous pitch passage.
!! Solo-line.
!! From J.S. Bach, Violin Partita No. 2, Gigue, measure 5ff
!! violin
!! 12/8 meter
**kern	**metpos
*M12/8	*M12/8
*tb16	*tb16
=5	=5
16gg	1
16ee	5
16cc	4
16g	5
16e	4
16g	5
16cc	3
16g	5
16e	4
16c	5
16e	4
16g	5
16a	2
16g	5
16f	4
16g	5
16a	4
16b-	5
16cc	3
16dd	5
16ee	4
16ff	5
16gg	4
16aa	5
=6	=6
16bb-	1
16aa	5
16bb-	4
16ddd	5
16ee	4
16gg	5
16aa	3
16gg	5
16aa	4
16ccc	5
16dd	4
16ff	5
16gg	2
16ff	5
16gg	4
16bb-	5
16cc	4
16ee	5
16ff	3
16ee	5
16ff	4
16aa	5
16gg	4
16ff	5
=7	=7
16ee	1
16dd	5
16ee	4
16ff	5
16ee	4
16dd	5
16cc	3
16b-	5
16cc	4
16dd	5
16cc	4
16b-	5
16a	2
16b-	5
16cc	4
16ff	5
16cc	4
16a	5
16f	3
16g	5
16a	4
16cc	5
16a	4
16f	5
=8	=8
16d	1
16e-	5
16f	4
16b-	5
16f	4
16d	5
16B-	3
16c	5
16d	4
16f	5
16d	4
16B-	5
16G	2
16B-	5
16d	4
16g	5
16b-	4
16dd	5
16gg	3
16bb-	5
16gg	4
16dd	5
16b-	4
16g	5
=9	=9
16en	1
16g	5
16cc	4
16ee	5
16gg	4
16bb-	5
16cc	3
16b-	5
16cc	4
16bb-	5
16cc	4
16bb-	5
16f	2
16a	5
16cc	4
16ee	5
16ff	4
16aa	5
16cc	3
16b-	5
16cc	4
16aa	5
16cc	4
16aa	5
=10	=10
16e	1
16g	5
16cc	4
16ee	5
16gg	4
16bb-	5
16cc	3
16b-	5
16cc	4
16bb-	5
16cc	4
16bb-	5
16f	2
16a	5
16cc	4
16ee	5
16ff	4
16aa	5
16cc	3
16b-	5
16cc	4
16aa	5
16cc	4
16aa	5
=11	=11
16b-	1
16dd	5
16ff	4
16aa	5
16bb-	4
16ddd	5
16ee	3
16dd	5
16ee	4
16ddd	5
16ee	4
16ddd	5
16a	2
16cc	5
16ee	4
16gg	5
16aa	4
16ccc	5
16dd	3
16cc	5
16dd	4
16ccc	5
16dd	4
16ccc	5
=12	=12
*-	*-
